src/styles/icons/tools.svg

<svg width="24" height="24" viewBox="0 0 24 24" fill="none" xmlns="http://www.w3.org/2000/svg">
<mask id="mask0_2215_11274" style="mask-type:alpha" maskUnits="userSpaceOnUse" x="0" y="0" width="24" height="24">
<rect width="24" height="24" fill="#D9D9D9"/>
</mask>
<g mask="url(#mask0_2215_11274)">
<path d="M10.7729 12.0538L8.17869 19.2153C8.16203 19.2589 8.12036 19.3141 8.05369 19.3808L7.49419 19.9153C7.37619 20.0269 7.24703 20.0548 7.10669 19.999C6.96636 19.9432 6.88269 19.8442 6.85569 19.702L6.76544 18.9538C6.75894 18.9409 6.76728 18.8692 6.79044 18.7385L9.46544 11.354C9.65761 11.5295 9.86269 11.674 10.0807 11.7875C10.2987 11.901 10.5294 11.9897 10.7729 12.0538ZM11.9999 10.75C11.2371 10.75 10.5881 10.4823 10.0529 9.947C9.51761 9.41183 9.24994 8.76283 9.24994 8C9.24994 7.35 9.44544 6.7885 9.83644 6.3155C10.2274 5.84233 10.6986 5.53458 11.2499 5.39225V3.75C11.2499 3.53717 11.3218 3.359 11.4654 3.2155C11.6089 3.07183 11.7871 3 11.9999 3C12.2128 3 12.3909 3.07183 12.5344 3.2155C12.6781 3.359 12.7499 3.53717 12.7499 3.75V5.39225C13.3013 5.53458 13.7724 5.84233 14.1634 6.3155C14.5544 6.7885 14.7499 7.35 14.7499 8C14.7499 8.76283 14.4823 9.41183 13.9469 9.947C13.4118 10.4823 12.7628 10.75 11.9999 10.75ZM11.9999 9.25C12.3474 9.25 12.6426 9.1285 12.8854 8.8855C13.1284 8.64267 13.2499 8.3475 13.2499 8C13.2499 7.6525 13.1284 7.35733 12.8854 7.1145C12.6426 6.8715 12.3474 6.75 11.9999 6.75C11.6524 6.75 11.3573 6.8715 11.1144 7.1145C10.8714 7.35733 10.7499 7.6525 10.7499 8C10.7499 8.3475 10.8714 8.64267 11.1144 8.8855C11.3573 9.1285 11.6524 9.25 11.9999 9.25ZM13.2269 12.0538C13.4704 11.9897 13.7012 11.901 13.9192 11.7875C14.1372 11.674 14.3391 11.5295 14.5249 11.354L17.1999 18.7385C17.2101 18.7692 17.2184 18.8409 17.2249 18.9538L17.1344 19.702C17.1076 19.8442 17.024 19.9432 16.8837 19.999C16.7432 20.0548 16.614 20.0269 16.4962 19.9153L15.9364 19.3808L15.8114 19.2153L13.2269 12.0538Z" fill="#1C1B1F"/>
</g>
</svg>

<svg fill="none" xmlns="http://www.w3.org/2000/svg" viewBox="0 0 24 24"><mask id="a" style="mask-type:alpha" maskUnits="userSpaceOnUse" x="0" y="0" width="24" height="24"><path fill="#D9D9D9" d="M0 0h24v24H0z"/></mask><g mask="url(#a)"><path opacity=".4" fill-rule="evenodd" clip-rule="evenodd" d="M12.117 1.107c3.555-.065 7.554-.28 9.842 2.443 2.33 2.772 1.675 6.763.856 10.29-.813 3.507-1.975 7.384-5.285 8.8-3.213 1.373-6.566-.8-9.668-2.405-2.937-1.52-6.065-3.1-7.058-6.254C-.276 10.55.347 6.607 2.72 3.906c2.27-2.583 5.958-2.735 9.396-2.799Z" fill="#DE93A0"/><path d="m10.773 12.054-2.594 7.161a.54.54 0 0 1-.125.166l-.56.534c-.118.112-.247.14-.387.084a.38.38 0 0 1-.251-.297l-.09-.748a.819.819 0 0 1 .024-.216l2.675-7.384c.192.176.398.32.616.434.218.113.448.202.692.266ZM12 10.75a2.651 2.651 0 0 1-1.947-.803A2.65 2.65 0 0 1 9.25 8c0-.65.195-1.212.586-1.684.391-.474.862-.781 1.414-.924V3.75c0-.213.072-.391.215-.534A.725.725 0 0 1 12 3c.213 0 .39.072.534.216a.725.725 0 0 1 .216.534v1.642c.551.143 1.022.45 1.413.923.391.473.587 1.035.587 1.685a2.65 2.65 0 0 1-.803 1.947A2.65 2.65 0 0 1 12 10.75Zm0-1.5c.347 0 .643-.121.885-.364.243-.243.365-.538.365-.886s-.122-.643-.365-.886A1.205 1.205 0 0 0 12 6.75c-.348 0-.643.122-.886.364A1.205 1.205 0 0 0 10.75 8c0 .348.121.643.364.886s.538.364.886.364Zm1.227 2.804c.243-.064.474-.153.692-.267.218-.113.42-.258.606-.433l2.675 7.384c.01.031.018.103.025.216l-.09.748a.38.38 0 0 1-.251.297c-.14.056-.27.028-.388-.084l-.56-.534-.125-.166-2.584-7.161Z" fill="#1C1B1F"/></g></svg>
